static/images/social/linkedIn.svg

<svg height="39.999" viewBox="0 0 40 39.999" width="40" xmlns="http://www.w3.org/2000/svg"><path d="m20 40a20 20 0 0 1 -7.785-38.427 20 20 0 0 1 15.57 36.855 19.875 19.875 0 0 1 -7.785 1.572zm-9.69-23.276v12.652h4.39v-12.652zm13.13 2.738c1.357 0 2.046.954 2.046 2.835v6.91h4.367v-7.193c0-2.2-.573-3.82-1.7-4.8a4.635 4.635 0 0 0 -3.067-1.055c-.064 0-.128 0-.192 0a4.413 4.413 0 0 0 -3.777 2.107v-1.7h-4.38v12.641h4.38v-6.876c-.005-1.324.605-2.869 2.323-2.869zm-11.457-9.162h-.069a2.231 2.231 0 0 0 -2.172 2.242 2.341 2.341 0 0 0 2.34 2.233h.106a2.241 2.241 0 0 0 -.205-4.473z" fill="#131214" transform="translate(0 -.001)"/></svg>

<svg xmlns="http://www.w3.org/2000/svg" width="40" height="39.999" viewBox="0 0 40 39.999"><defs><style>.a{fill:#131214;}</style></defs><path class="a" d="M20,40A20,20,0,0,1,12.215,1.573a20,20,0,0,1,15.57,36.855A19.875,19.875,0,0,1,20,40ZM10.31,16.724V29.376H14.7V16.724ZM23.44,19.462c1.357,0,2.046.954,2.046,2.835v6.91h4.367V22.014c0-2.2-.573-3.82-1.7-4.8a4.635,4.635,0,0,0-3.067-1.055c-.064,0-.128,0-.192,0a4.413,4.413,0,0,0-3.777,2.107v-1.7h-4.38V29.207h4.38V22.331C21.112,21.007,21.722,19.462,23.44,19.462ZM11.983,10.3h-.069a2.231,2.231,0,0,0-2.172,2.242,2.341,2.341,0,0,0,2.34,2.233l.106,0a2.241,2.241,0,0,0-.205-4.473Z" transform="translate(0 -0.001)"/></svg>
